modules/themify-icons/icons/check-box.svg

<?xml version="1.0" encoding="utf-8"?>
<!-- Generated by IcoMoon.io -->
<!DOCTYPE svg PUBLIC "-//W3C//DTD SVG 1.1//EN" "http://www.w3.org/Graphics/SVG/1.1/DTD/svg11.dtd">
<svg version="1.1" xmlns="http://www.w3.org/2000/svg" xmlns:xlink="http://www.w3.org/1999/xlink" width="17" height="17" viewBox="0 0 17 17">
<g>
</g>
	<path d="M14 5.761h1v10.239h-14v-14h8.393v1h-7.393v12h12v-9.239zM4.854 8.146l-0.708 0.708 3.434 3.434 7.587-11.512-0.835-0.551-6.912 10.488-2.566-2.567z" fill="#000000" />
</svg>

<svg xmlns="http://www.w3.org/2000/svg" width="17" height="17"><path d="M14 5.761h1V16H1V2h8.393v1H2v12h12V5.761zM4.854 8.146l-.708.708 3.434 3.434L15.167.776l-.835-.551L7.42 10.713 4.854 8.146z"/></svg>
